X:1
T:Roving Sailor
L:1/8
Q:1/8=180
M:2/4
I:linebreak $
K:G
V:1 treble 
V:1
|: d>B GA | BB/c/ BA | d/e/d/B/ GA | Be e z | d/e/d/B/ GA | BB/c/ BA | Gg fg | ed e z :: dg fg |$ %9
 ee dB | Gg fg | ed e z | dg fg | ee dB | d/e/d/B/ GA | Be e z :| %16
